usr/share/icons/biglinux-icons-material-dark/16/actions/view-institution-add.svg

<svg viewBox="0 0 16 16" xmlns="http://www.w3.org/2000/svg">
  <defs id="defs3051">
    <style type="text/css" id="current-color-scheme">
      .ColorScheme-Text {
        color:#dedede;
      }
      </style>
  </defs>
<path d="m8 2.0039062-6 3.8984376v1.0976562h1v6h-1v1h6v-1h-2v-6h4v1h1v-1h1v1h1v-1h1v-1.0976562zm0 1.1933594 4.310547 2.8027344h-8.6210939zm-4 3.8027344h1v6h-1zm7 2v2h-2v1h2v2h1v-2h2v-1h-2v-2z"
      style="fill:currentColor;fill-opacity:1;stroke:none"
      class="ColorScheme-Text"
      />
</svg>

<svg xmlns="http://www.w3.org/2000/svg" viewBox="0 0 16 16">
<defs id="defs3051">
<style id="current-color-scheme" type="text/css">
.ColorScheme-Text{color:#dedede}
</style>
</defs>
<path d="M8 2.004 2 5.902V7h1v6H2v1h6v-1H6V7h4v1h1V7h1v1h1V7h1V5.902zm0 1.193L12.31 6H3.69zM4 7h1v6H4zm7 2v2H9v1h2v2h1v-2h2v-1h-2V9z" class="ColorScheme-Text" style="fill:currentColor;fill-opacity:1;stroke:none"/>
</svg>
